Humanity/places/16/folder-download.svg

<?xml version="1.0" encoding="UTF-8" standalone="no"?>
<!-- Created with Inkscape (http://www.inkscape.org/) -->
<svg
   xmlns:dc="http://purl.org/dc/elements/1.1/"
   xmlns:cc="http://creativecommons.org/ns#"
   xmlns:rdf="http://www.w3.org/1999/02/22-rdf-syntax-ns#"
   xmlns:svg="http://www.w3.org/2000/svg"
   xmlns="http://www.w3.org/2000/svg"
   xmlns:xlink="http://www.w3.org/1999/xlink"
   xmlns:sodipodi="http://sodipodi.sourceforge.net/DTD/sodipodi-0.dtd"
   xmlns:inkscape="http://www.inkscape.org/namespaces/inkscape"
   version="1.0"
   width="16"
   height="16"
   id="svg2733"
   sodipodi:version="0.32"
   inkscape:version="0.46"
   sodipodi:docname="folder-download.svg"
   inkscape:output_extension="org.inkscape.output.svg.inkscape">
  <metadata
     id="metadata49">
    <rdf:RDF>
      <cc:Work
         rdf:about="">
        <dc:format>image/svg+xml</dc:format>
        <dc:type
           rdf:resource="http://purl.org/dc/dcmitype/StillImage" />
      </cc:Work>
    </rdf:RDF>
  </metadata>
  <sodipodi:namedview
     inkscape:window-height="793"
     inkscape:window-width="1440"
     inkscape:pageshadow="2"
     inkscape:pageopacity="0.0"
     guidetolerance="10.0"
     gridtolerance="10.0"
     objecttolerance="10.0"
     borderopacity="1.0"
     bordercolor="#666666"
     pagecolor="#ffffff"
     id="base"
     showgrid="true"
     inkscape:zoom="36.5"
     inkscape:cx="8"
     inkscape:cy="8"
     inkscape:window-x="0"
     inkscape:window-y="24"
     inkscape:current-layer="svg2733">
    <inkscape:grid
       type="xygrid"
       id="grid2424" />
  </sodipodi:namedview>
  <defs
     id="defs2735">
    <radialGradient
       cx="605.71429"
       cy="486.64789"
       r="117.14286"
       fx="605.71429"
       fy="486.64789"
       id="radialGradient2677"
       xlink:href="#linearGradient5060"
       gradientUnits="userSpaceOnUse"
       gradientTransform="matrix(-2.774389,0,0,1.969706,112.7623,-872.8854)" />
    <linearGradient
       id="linearGradient5060">
      <stop
         id="stop5062"
         style="stop-color:black;stop-opacity:1"
         offset="0" />
      <stop
         id="stop5064"
         style="stop-color:black;stop-opacity:0"
         offset="1" />
    </linearGradient>
    <radialGradient
       cx="605.71429"
       cy="486.64789"
       r="117.14286"
       fx="605.71429"
       fy="486.64789"
       id="radialGradient2675"
       xlink:href="#linearGradient5060"
       gradientUnits="userSpaceOnUse"
       gradientTransform="matrix(2.774389,0,0,1.969706,-1891.633,-872.8854)" />
    <linearGradient
       id="linearGradient5048">
      <stop
         id="stop5050"
         style="stop-color:black;stop-opacity:0"
         offset="0" />
      <stop
         id="stop5056"
         style="stop-color:black;stop-opacity:1"
         offset="0.5" />
      <stop
         id="stop5052"
         style="stop-color:black;stop-opacity:0"
         offset="1" />
    </linearGradient>
    <linearGradient
       x1="302.85715"
       y1="366.64789"
       x2="302.85715"
       y2="609.50507"
       id="linearGradient2673"
       xlink:href="#linearGradient5048"
       gradientUnits="userSpaceOnUse"
       gradientTransform="matrix(2.774389,0,0,1.969706,-1892.179,-872.8854)" />
    <linearGradient
       id="linearGradient3390-178-986-453">
      <stop
         id="stop3624"
         style="stop-color:#bb5e12;stop-opacity:1"
         offset="0" />
      <stop
         id="stop3626"
         style="stop-color:#cd8033;stop-opacity:1"
         offset="1" />
    </linearGradient>
    <linearGradient
       x1="10.318256"
       y1="14.992862"
       x2="4.1760364"
       y2="4.0514131"
       id="linearGradient2692"
       xlink:href="#linearGradient3390-178-986-453"
       gradientUnits="userSpaceOnUse"
       gradientTransform="matrix(1.0083043,0,0,1.0006232,-8.2398426e-4,-0.0066205)" />
    <linearGradient
       id="linearGradient7012-661-145-733-759-865-745-661-970-94">
      <stop
         id="stop3618"
         style="stop-color:#edd563;stop-opacity:1"
         offset="0" />
      <stop
         id="stop3620"
         style="stop-color:#e08223;stop-opacity:1"
         offset="1" />
    </linearGradient>
    <linearGradient
       x1="126.69791"
       y1="58.583481"
       x2="169.22964"
       y2="238.3999"
       id="linearGradient2690"
       xlink:href="#linearGradient7012-661-145-733-759-865-745-661-970-94"
       gradientUnits="userSpaceOnUse"
       gradientTransform="matrix(0.05489342,0.01385132,0.00257263,0.05248166,-0.7128009,-0.2674105)" />
    <linearGradient
       id="linearGradient8265-821-176-38-919-66-249">
      <stop
         id="stop2687"
         style="stop-color:white;stop-opacity:0.27450982"
         offset="0" />
      <stop
         id="stop2689"
         style="stop-color:white;stop-opacity:0.07843138"
         offset="1" />
    </linearGradient>
    <linearGradient
       x1="18.03083"
       y1="16.407909"
       x2="20.054544"
       y2="24.627615"
       id="linearGradient2687"
       xlink:href="#linearGradient8265-821-176-38-919-66-249"
       gradientUnits="userSpaceOnUse"
       gradientTransform="matrix(0.2966887,0,0,0.3520695,1.8805021,2.1186294)" />
    <linearGradient
       x1="28.314739"
       y1="20.709501"
       x2="0.81572169"
       y2="20.709501"
       id="linearGradient2512"
       xlink:href="#linearGradient2264-108-719-42-524"
       gradientUnits="userSpaceOnUse"
       gradientTransform="matrix(0,-0.319447,-0.313352,0,15.486281,15.08587)" />
    <linearGradient
       id="linearGradient2264-108-719-42-524">
      <stop
         id="stop2530"
         style="stop-color:#e6e6e6;stop-opacity:1"
         offset="0" />
      <stop
         id="stop2532"
         style="stop-color:#929292;stop-opacity:1"
         offset="1" />
    </linearGradient>
    <linearGradient
       x1="13.471772"
       y1="25.410501"
       x2="57.726395"
       y2="25.410501"
       id="linearGradient2509"
       xlink:href="#linearGradient4222"
       gradientUnits="userSpaceOnUse"
       gradientTransform="matrix(0,0.3704967,-0.3617496,0,17.508315,-1.3320539)" />
    <linearGradient
       id="linearGradient4222">
      <stop
         id="stop4224"
         style="stop-color:white;stop-opacity:1"
         offset="0" />
      <stop
         id="stop4226"
         style="stop-color:white;stop-opacity:0"
         offset="1" />
    </linearGradient>
  </defs>
  <g
     id="layer1">
    <g
       transform="matrix(0.3639508,0,0,0.3445682,-0.6448509,-0.3854516)"
       id="layer6">
      <g
         transform="matrix(0.02165152,0,0,0.01485743,43.0076,42.68539)"
         id="g2488"
         style="display:inline">
        <rect
           width="1339.6335"
           height="478.35718"
           x="-1559.2523"
           y="-150.69685"
           id="rect2490"
           style="opacity:0.40206185;fill:url(#linearGradient2673);fill-opacity:1;fill-rule:nonzero;stroke:none;stroke-width:1;marker:none;visibility:visible;display:inline;overflow:visible" />
        <path
           d="m -219.61876,-150.68038 c 0,0 0,478.33079 0,478.33079 142.874166,0.90045 345.40022,-107.16966 345.40014,-239.196175 0,-132.026537 -159.436816,-239.134595 -345.40014,-239.134615 z"
           id="path2492"
           style="opacity:0.40206185;fill:url(#radialGradient2675);fill-opacity:1;fill-rule:nonzero;stroke:none;stroke-width:1;marker:none;visibility:visible;display:inline;overflow:visible" />
        <path
           d="m -1559.2523,-150.68038 c 0,0 0,478.33079 0,478.33079 -142.8742,0.90045 -345.4002,-107.16966 -345.4002,-239.196175 0,-132.026537 159.4368,-239.134595 345.4002,-239.134615 z"
           id="path2494"
           style="opacity:0.40206185;fill:url(#radialGradient2677);fill-opacity:1;fill-rule:nonzero;stroke:none;stroke-width:1;marker:none;visibility:visible;display:inline;overflow:visible" />
      </g>
    </g>
    <path
       d="m 0.60149736,1.5214532 c -0.056258,0 -0.104488,0.060345 -0.104488,0.122673 0,4.6045693 0.003374,8.6511918 -6.5534e-4,12.8572538 C 5.2026801,14.47741 9.9114628,14.45312 14.61887,14.43586 c -0.417129,0 -1.112329,-0.07009 -1.102384,-0.940487 0.0035,-3.5970295 0.02296,-7.4083529 0.01078,-10.9808559 l -6.0519488,0 c -0.4774881,0 -1.0962577,-0.9930629 -1.5260835,-0.9930629 l -5.34773334,0 z"
       id="rect2196"
       style="fill:white;fill-opacity:1;stroke:#a8a8a8;stroke-width:0.97899997;stroke-linecap:round;stroke-linejoin:round;stroke-miterlimit:4;stroke-opacity:1;stroke-dasharray:none;display:inline" />
    <path
       d="m 2.5253881,4.5240135 c 0.656364,0 12.4800419,0.031393 12.9890009,0.031393 0,0.615413 -0.02468,9.9580745 -0.05407,9.9580745 -4.558843,0.01775 -11.6593999,-0.01389 -12.9868139,-0.01389 0,-1.161471 0.05188,-7.5853285 0.05188,-9.9755725 z"
       id="rect3086"
       style="fill:url(#linearGradient2690);fill-opacity:1;stroke:url(#linearGradient2692);stroke-width:0.95339239;stroke-linecap:round;stroke-linejoin:round;stroke-miterlimit:4;stroke-opacity:1;stroke-dasharray:none;display:inline" />
    <path
       d="m 2.8354689,4.0000008 c -0.4565886,0 -0.834437,0.4483788 -0.834437,0.9901955 l 0,5.6331117 c 0.00175,0.100774 0.044034,0.21567 0.1112582,0.286057 0.067223,0.07039 0.1531492,0.100083 0.2503311,0.08802 0.00309,9.4e-5 0.00618,9.4e-5 0.00927,0 L 15.722884,8.4888869 c 0.154804,-0.028972 0.275982,-0.1881213 0.278146,-0.3740738 l 0,-3.1246168 c 0,-0.5418167 -0.377849,-0.9901955 -0.834437,-0.9901955 l -12.3311241,0 z"
       id="path2509"
       style="fill:url(#linearGradient2687);fill-opacity:1;fill-rule:evenodd;stroke:none" />
    <path
       d="m 3.4989691,13.999999 0,-8.499999 11.4999999,0"
       id="path2406"
       style="opacity:0.35;fill:none;stroke:white;stroke-width:1px;stroke-linecap:butt;stroke-linejoin:miter;stroke-opacity:1" />
  </g>
  <g
     transform="translate(2,1.0000002)"
     id="layer1-1">
    <g
       id="g2564">
      <path
         d="M 13.5,8.4999998 L 8,14.500853 L 2.5,8.4999998 L 5.5,8.4999998 L 5.5,3.4999998 L 10.5,3.4999998 L 10.5,8.4999998 L 13.5,8.4999998 z"
         id="path3288"
         style="fill:url(#linearGradient2512);fill-opacity:1;fill-rule:nonzero;stroke:#7e7e7e;stroke-width:0.99829447;stroke-linecap:round;stroke-linejoin:round;stroke-miterlimit:4;stroke-opacity:1;stroke-dasharray:none;stroke-dashoffset:0;marker:none;visibility:visible;display:inline;overflow:visible"
         sodipodi:nodetypes="cccccccc" />
      <path
         d="M 11,9.4999998 L 8,13 L 5,9.4999998 L 6.5,9.4999998 L 6.5,4.4999998 L 9.5,4.4999998 L 9.5,9.4999998 L 11,9.4999998 z"
         id="path3290"
         style="opacity:0.35400008;fill:none;stroke:url(#linearGradient2509);stroke-width:0.99829447;stroke-linecap:butt;stroke-linejoin:miter;stroke-miterlimit:4;stroke-opacity:1;stroke-dasharray:none;stroke-dashoffset:0;marker:none;visibility:visible;display:inline;overflow:visible"
         sodipodi:nodetypes="cccccccc" />
    </g>
  </g>
</svg>

<?xml version="1.0" encoding="UTF-8" standalone="no"?>
<!-- Created with Inkscape (http://www.inkscape.org/) -->
<svg id="svg3272" xmlns="http://www.w3.org/2000/svg" height="16" width="16" version="1.0" xmlns:xlink="http://www.w3.org/1999/xlink">
 <defs id="defs3274">
  <linearGradient id="linearGradient2509" y2="25.411" gradientUnits="userSpaceOnUse" x2="57.726" gradientTransform="matrix(0 .37050 -.36175 0 17.508 -1.3321)" y1="25.411" x1="13.472">
   <stop id="stop4224" style="stop-color:#fff" offset="0"/>
   <stop id="stop4226" style="stop-color:#fff;stop-opacity:0" offset="1"/>
  </linearGradient>
  <linearGradient id="linearGradient2512" y2="20.71" gradientUnits="userSpaceOnUse" x2=".81572" gradientTransform="matrix(0 -.31945 -.31335 0 15.486 15.086)" y1="20.71" x1="28.315">
   <stop id="stop2530" style="stop-color:#e6e6e6" offset="0"/>
   <stop id="stop2532" style="stop-color:#929292" offset="1"/>
  </linearGradient>
  <linearGradient id="linearGradient2687" y2="24.628" gradientUnits="userSpaceOnUse" x2="20.055" gradientTransform="matrix(.29669 0 0 .35207 1.8805 2.1186)" y1="16.408" x1="18.031">
   <stop id="stop2687" style="stop-color:#fff;stop-opacity:.27451" offset="0"/>
   <stop id="stop2689" style="stop-color:#fff;stop-opacity:.078431" offset="1"/>
  </linearGradient>
  <linearGradient id="linearGradient2692" y2="4.0514" gradientUnits="userSpaceOnUse" x2="4.176" gradientTransform="matrix(1.0083 0 0 1.0006 -.00082398 -.0066205)" y1="14.993" x1="10.318">
   <stop id="stop3624" style="stop-color:#bb2b12" offset="0"/>
   <stop id="stop3626" style="stop-color:#cd7233" offset="1"/>
  </linearGradient>
  <linearGradient id="linearGradient2690" y2="238.4" gradientUnits="userSpaceOnUse" x2="169.23" gradientTransform="matrix(.054893 .013851 .0025726 .052482 -.71280 -.26741)" y1="58.583" x1="126.7">
   <stop id="stop3618" style="stop-color:#edb763" offset="0"/>
   <stop id="stop3270" style="stop-color:#de7f32" offset=".5"/>
   <stop id="stop3620" style="stop-color:#d24413" offset="1"/>
  </linearGradient>
  <radialGradient id="radialGradient2677" xlink:href="#linearGradient5060" gradientUnits="userSpaceOnUse" cy="486.65" cx="605.71" gradientTransform="matrix(-2.7744 0 0 1.9697 112.76 -872.89)" r="117.14"/>
  <radialGradient id="radialGradient2675" xlink:href="#linearGradient5060" gradientUnits="userSpaceOnUse" cy="486.65" cx="605.71" gradientTransform="matrix(2.7744 0 0 1.9697 -1891.6 -872.89)" r="117.14"/>
  <linearGradient id="linearGradient2673" y2="609.51" gradientUnits="userSpaceOnUse" x2="302.86" gradientTransform="matrix(2.7744 0 0 1.9697 -1892.2 -872.89)" y1="366.65" x1="302.86">
   <stop id="stop5050" style="stop-opacity:0" offset="0"/>
   <stop id="stop5056" offset=".5"/>
   <stop id="stop5052" style="stop-opacity:0" offset="1"/>
  </linearGradient>
  <linearGradient id="linearGradient5060">
   <stop id="stop5062" offset="0"/>
   <stop id="stop5064" style="stop-opacity:0" offset="1"/>
  </linearGradient>
 </defs>
 <g id="layer1">
  <g id="layer6" transform="matrix(.36395 0 0 .34457 -.64485 -.38545)">
   <g id="g2488" transform="matrix(.021652 0 0 .014857 43.008 42.685)">
    <rect id="rect2490" style="opacity:.40206;fill:url(#linearGradient2673)" height="478.36" width="1339.6" y="-150.7" x="-1559.3"/>
    <path id="path2492" style="opacity:.40206;fill:url(#radialGradient2675)" d="m-219.62-150.68v478.33c142.88 0.9 345.4-107.17 345.4-239.2 0-132.02-159.44-239.13-345.4-239.13z"/>
    <path id="path2494" style="opacity:.40206;fill:url(#radialGradient2677)" d="m-1559.3-150.68v478.33c-142.8 0.9-345.4-107.17-345.4-239.2 0-132.02 159.5-239.13 345.4-239.13z"/>
   </g>
  </g>
  <path id="rect2196" style="stroke-linejoin:round;stroke:#a8a8a8;stroke-linecap:round;stroke-width:0.979;fill:#fff" d="m0.6015 1.5215c-0.05626 0-0.10449 0.0603-0.10449 0.1226 0 4.6046 0.00337 8.6509-0.00066 12.857 4.7064-0.024 9.4152-0.048 14.123-0.065-0.417 0-1.112-0.07-1.103-0.941 0.004-3.5967 0.023-7.408 0.011-10.98l-6.0517-0.0005c-0.4775 0-1.0962-0.993-1.5261-0.993h-5.3477z"/>
  <path id="rect3086" style="stroke-linejoin:round;stroke:url(#linearGradient2692);stroke-linecap:round;stroke-width:.95339;fill:url(#linearGradient2690)" d="m2.5254 4.524c0.6564 0 12.48 0.0314 12.989 0.0314 0 0.6154-0.024 9.9576-0.054 9.9576-4.559 0.018-11.659-0.013-12.986-0.013-0.0005-1.162 0.0514-7.5857 0.0514-9.976z"/>
  <path id="path2509" style="fill:url(#linearGradient2687);fill-rule:evenodd" d="m2.8355 4c-0.4566 0-0.8345 0.4484-0.8345 0.9902v5.6328c0.0018 0.101 0.0441 0.216 0.1113 0.286 0.0672 0.071 0.1531 0.1 0.2503 0.088h0.0093l13.351-2.5081c0.155-0.029 0.276-0.1881 0.278-0.3741v-3.1246c0-0.5418-0.378-0.9902-0.834-0.9902h-12.332 0.0005z"/>
  <path id="path2406" style="opacity:.35;stroke:#fff;stroke-width:1px;fill:none" d="m3.499 14v-8.5h11.5"/>
 </g>
 <g id="layer1-1" transform="translate(2 1)">
  <g id="g2564">
   <path id="path3288" style="stroke-linejoin:round;stroke:#7e7e7e;stroke-linecap:round;stroke-width:.99829;fill:url(#linearGradient2512)" d="m13.5 8.5l-5.5 6.001-5.5-6.001h3v-5h5v5h3z"/>
   <path id="path3290" style="opacity:0.354;stroke:url(#linearGradient2509);stroke-width:.99829;fill:none" d="m11 9.5l-3 3.5-3-3.5h1.5v-5h3v5h1.5z"/>
  </g>
 </g>
</svg>
